static/img/cam-server/ico-header-people.svg

<svg width="20" height="20" viewBox="0 0 20 20" fill="none" xmlns="http://www.w3.org/2000/svg">
<path d="M4.50022 17V16.6001C4.49373 15.8637 4.633 15.1336 4.90973 14.4533C5.18645 13.773 5.59496 13.1564 6.11087 12.6403C6.59513 12.1287 7.17445 11.7203 7.81513 11.4388C8.45582 11.1573 9.1451 11.0082 9.84286 11.0004M9.84286 11.0004C8.84942 10.9832 7.90308 10.5661 7.21082 9.84045C6.84448 9.46841 6.55495 9.02548 6.3593 8.53777C6.16364 8.05005 6.06582 7.5274 6.07158 7.00061C6.06647 6.4739 6.1646 5.95145 6.36021 5.46382C6.55582 4.97619 6.84499 4.53319 7.2108 4.16073C7.57661 3.78828 8.01171 3.49385 8.49064 3.29469C8.96956 3.09552 9.48269 2.99562 10 3.00082C10.5181 2.98994 11.0328 3.08725 11.5125 3.28675C11.9923 3.48625 12.4267 3.7837 12.7892 4.16076C13.1555 4.53281 13.4451 4.97573 13.6407 5.46344C13.8364 5.95116 13.9342 6.47381 13.9284 7.00061C13.9342 7.5274 13.8364 8.05005 13.6407 8.53777C13.4451 9.02548 13.1555 9.46841 12.7892 9.84045C12.4555 10.201 12.0541 10.4895 11.6086 10.6888C11.1632 10.8881 10.6829 10.994 10.1964 11.0004M9.84286 11.0004H10.1964M10.1964 11.0004C10.8896 11.0008 11.5752 11.1467 12.2105 11.4288C12.8458 11.711 13.4173 12.1234 13.8891 12.6403C14.405 13.1564 14.8135 13.773 15.0903 14.4533C15.367 15.1336 15.5063 15.8637 15.4998 16.6001V17" stroke="currentColor" stroke-linecap="round" stroke-linejoin="round"/>
</svg>

<svg xmlns="http://www.w3.org/2000/svg" width="20" height="20" fill="none" viewBox="0 0 20 20"><path stroke="currentColor" stroke-linecap="round" stroke-linejoin="round" d="M4.5 17v-.4a5.6 5.6 0 0 1 .41-2.147 5.5 5.5 0 0 1 1.2-1.813 5.3 5.3 0 0 1 1.705-1.201c.64-.282 1.33-.43 2.028-.439m0 0A3.73 3.73 0 0 1 7.21 9.84a4 4 0 0 1-.852-1.302A4 4 0 0 1 6.072 7a4 4 0 0 1 .288-1.537c.196-.488.485-.93.85-1.303.367-.373.802-.667 1.28-.866.48-.2.993-.3 1.51-.294a3.7 3.7 0 0 1 1.512.286c.48.2.915.497 1.277.874.367.372.656.815.852 1.302a4 4 0 0 1 .287 1.538 4 4 0 0 1-.287 1.537c-.196.487-.486.93-.852 1.302-.333.361-.735.65-1.18.849-.446.2-.926.305-1.413.311m-.353 0h.353m0 0c.694 0 1.38.147 2.015.429a5.05 5.05 0 0 1 1.678 1.211 5.5 5.5 0 0 1 1.201 1.813c.277.68.416 1.41.41 2.147v.4"/></svg>
